packages/astro-components-stencil/src/icons/trending-flat.svg

<svg xmlns="http://www.w3.org/2000/svg" viewBox="0 0 24 24"><g xmlns="http://www.w3.org/2000/svg" id="trending-flat" fill-rule="nonzero">
            <path d="M21.65 11.65l-2.79-2.79a.501.501 0 00-.86.35V11H4c-.55 0-1 .45-1 1s.45 1 1 1h14v1.79c0 .45.54.67.85.35l2.79-2.79c.2-.19.2-.51.01-.7z"/>
        </g></svg>

<svg width="24" height="24" viewBox="0 0 24 24" fill="none" xmlns="http://www.w3.org/2000/svg">
<path d="M21.65 11.65L18.86 8.86C18.54 8.54 18 8.76 18 9.21V11H4C3.45 11 3 11.45 3 12C3 12.55 3.45 13 4 13H18V14.79C18 15.24 18.54 15.46 18.85 15.14L21.64 12.35C21.84 12.16 21.84 11.84 21.65 11.65Z" fill="black"/>
</svg>
